images/site-logo.svg

<svg width="158" height="20" viewBox="0 0 158 20" fill="none" xmlns="http://www.w3.org/2000/svg">
<path d="M15.088 8.44L10.552 17.608H8.32L3.808 8.44V19H0.0640001V2.224H5.128L9.448 11.44L13.792 2.224H18.832V19H15.088V8.44ZM33.8864 17.128C32.4304 18.504 30.7184 19.192 28.7504 19.192C26.7984 19.192 25.1824 18.592 23.9024 17.392C22.6224 16.176 21.9824 14.552 21.9824 12.52C21.9824 10.488 22.6304 8.872 23.9264 7.672C25.2384 6.472 26.7824 5.872 28.5584 5.872C30.3344 5.872 31.8384 6.408 33.0704 7.48C34.3184 8.552 34.9424 10.024 34.9424 11.896V13.816H25.5344C25.6464 14.52 26.0144 15.096 26.6384 15.544C27.2624 15.992 27.9664 16.216 28.7504 16.216C30.0144 16.216 31.0544 15.792 31.8704 14.944L33.8864 17.128ZM31.2944 11.248C31.2144 10.48 30.9264 9.888 30.4304 9.472C29.9344 9.056 29.3264 8.848 28.6064 8.848C27.9024 8.848 27.2544 9.064 26.6624 9.496C26.0704 9.928 25.7264 10.512 25.6304 11.248H31.2944ZM42.7984 19.192C41.2784 19.192 39.9184 18.544 38.7184 17.248C37.5184 15.952 36.9184 14.344 36.9184 12.424C36.9184 10.504 37.5024 8.936 38.6704 7.72C39.8384 6.488 41.2064 5.872 42.7744 5.872C44.3424 5.872 45.6224 6.424 46.6144 7.528V1.192H50.2144V19H46.6144V17.296C45.6064 18.56 44.3344 19.192 42.7984 19.192ZM40.5424 12.568C40.5424 13.608 40.8544 14.464 41.4784 15.136C42.1024 15.792 42.8304 16.12 43.6624 16.12C44.4944 16.12 45.1984 15.792 45.7744 15.136C46.3664 14.464 46.6624 13.608 46.6624 12.568C46.6624 11.512 46.3664 10.64 45.7744 9.952C45.1984 9.248 44.4864 8.896 43.6384 8.896C42.7904 8.896 42.0624 9.248 41.4544 9.952C40.8464 10.656 40.5424 11.528 40.5424 12.568ZM57.3227 19H53.7227V6.088H57.3227V19ZM54.0107 4.456C53.6107 4.04 53.4107 3.536 53.4107 2.944C53.4107 2.352 53.6107 1.856 54.0107 1.456C54.4267 1.04 54.9307 0.831999 55.5227 0.831999C56.1147 0.831999 56.6107 1.04 57.0107 1.456C57.4267 1.856 57.6347 2.352 57.6347 2.944C57.6347 3.536 57.4267 4.04 57.0107 4.456C56.6107 4.856 56.1147 5.056 55.5227 5.056C54.9307 5.056 54.4267 4.856 54.0107 4.456ZM67.0226 16C68.2226 16 69.3026 15.4 70.2626 14.2L72.3986 16.6C70.7346 18.328 68.9346 19.192 66.9986 19.192C65.0626 19.192 63.4226 18.584 62.0786 17.368C60.7506 16.136 60.0866 14.536 60.0866 12.568C60.0866 10.584 60.7586 8.976 62.1026 7.744C63.4626 6.496 65.0706 5.872 66.9266 5.872C67.8546 5.872 68.7906 6.064 69.7346 6.448C70.6946 6.832 71.5346 7.4 72.2546 8.152L70.3826 10.6C69.9666 10.104 69.4546 9.72 68.8466 9.448C68.2546 9.176 67.6626 9.04 67.0706 9.04C66.1266 9.04 65.3106 9.352 64.6226 9.976C63.9506 10.584 63.6146 11.44 63.6146 12.544C63.6146 13.632 63.9506 14.48 64.6226 15.088C65.3106 15.696 66.1106 16 67.0226 16ZM85.8673 19H82.4833V17.44C81.5553 18.608 80.4033 19.192 79.0273 19.192C77.6673 19.192 76.5233 18.8 75.5953 18.016C74.6673 17.216 74.2033 16.16 74.2033 14.848C74.2033 13.52 74.6833 12.528 75.6433 11.872C76.6033 11.216 77.9153 10.888 79.5793 10.888H82.2673V10.816C82.2673 9.44 81.5393 8.752 80.0833 8.752C79.4593 8.752 78.7953 8.88 78.0913 9.136C77.4033 9.376 76.8193 9.68 76.3393 10.048L74.7313 7.72C76.4273 6.488 78.3633 5.872 80.5393 5.872C82.1073 5.872 83.3873 6.264 84.3793 7.048C85.3713 7.832 85.8673 9.072 85.8673 10.768V19ZM82.2433 14.08V13.456H79.9873C78.5473 13.456 77.8273 13.904 77.8273 14.8C77.8273 15.264 77.9953 15.624 78.3313 15.88C78.6833 16.12 79.1793 16.24 79.8193 16.24C80.4593 16.24 81.0193 16.048 81.4993 15.664C81.9953 15.264 82.2433 14.736 82.2433 14.08ZM92.8493 19H89.2493V1.192H92.8493V19ZM110.849 15.688C112.689 15.688 114.193 14.96 115.361 13.504L117.761 15.976C115.857 18.12 113.609 19.192 111.017 19.192C108.441 19.192 106.313 18.376 104.633 16.744C102.969 15.112 102.137 13.056 102.137 10.576C102.137 8.08 102.985 6 104.681 4.336C106.393 2.672 108.481 1.84 110.945 1.84C113.697 1.84 116.001 2.888 117.857 4.984L115.529 7.624C114.345 6.152 112.873 5.416 111.113 5.416C109.705 5.416 108.497 5.88 107.489 6.808C106.497 7.72 106.001 8.96 106.001 10.528C106.001 12.08 106.473 13.328 107.417 14.272C108.361 15.216 109.505 15.688 110.849 15.688ZM122.828 12.544C122.828 13.6 123.124 14.464 123.716 15.136C124.324 15.792 125.092 16.12 126.02 16.12C126.964 16.12 127.732 15.792 128.324 15.136C128.932 14.464 129.236 13.6 129.236 12.544C129.236 11.488 128.932 10.624 128.324 9.952C127.732 9.28 126.964 8.944 126.02 8.944C125.092 8.944 124.324 9.28 123.716 9.952C123.124 10.624 122.828 11.488 122.828 12.544ZM132.86 12.544C132.86 14.416 132.212 15.992 130.916 17.272C129.62 18.552 127.988 19.192 126.02 19.192C124.068 19.192 122.444 18.552 121.148 17.272C119.852 15.992 119.204 14.416 119.204 12.544C119.204 10.672 119.852 9.096 121.148 7.816C122.444 6.52 124.068 5.872 126.02 5.872C127.988 5.872 129.62 6.52 130.916 7.816C132.212 9.096 132.86 10.672 132.86 12.544ZM142.426 9.256C141.354 9.256 140.554 9.64 140.026 10.408C139.498 11.16 139.234 12.16 139.234 13.408V19H135.634V6.088H139.234V7.792C139.698 7.264 140.274 6.816 140.962 6.448C141.666 6.08 142.378 5.888 143.098 5.872L143.122 9.256H142.426ZM156.785 17.128C155.329 18.504 153.617 19.192 151.649 19.192C149.697 19.192 148.081 18.592 146.801 17.392C145.521 16.176 144.881 14.552 144.881 12.52C144.881 10.488 145.529 8.872 146.825 7.672C148.137 6.472 149.681 5.872 151.457 5.872C153.233 5.872 154.737 6.408 155.969 7.48C157.217 8.552 157.841 10.024 157.841 11.896V13.816H148.433C148.545 14.52 148.913 15.096 149.537 15.544C150.161 15.992 150.865 16.216 151.649 16.216C152.913 16.216 153.953 15.792 154.769 14.944L156.785 17.128ZM154.193 11.248C154.113 10.48 153.825 9.888 153.329 9.472C152.833 9.056 152.225 8.848 151.505 8.848C150.801 8.848 150.153 9.064 149.561 9.496C148.969 9.928 148.625 10.512 148.529 11.248H154.193Z" fill="#252B42"/>
</svg>

<svg width="158" height="20" fill="none" xmlns="http://www.w3.org/2000/svg"><path d="m15.088 8.44-4.536 9.168H8.32L3.808 8.44V19H.064V2.224h5.064l4.32 9.216 4.344-9.216h5.04V19h-3.744V8.44Zm18.798 8.688c-1.456 1.376-3.168 2.064-5.136 2.064-1.952 0-3.568-.6-4.848-1.8-1.28-1.216-1.92-2.84-1.92-4.872s.648-3.648 1.944-4.848c1.312-1.2 2.856-1.8 4.632-1.8 1.776 0 3.28.536 4.512 1.608 1.248 1.072 1.872 2.544 1.872 4.416v1.92h-9.408c.112.704.48 1.28 1.104 1.728a3.533 3.533 0 0 0 2.112.672c1.264 0 2.304-.424 3.12-1.272l2.016 2.184Zm-2.592-5.88c-.08-.768-.368-1.36-.864-1.776-.496-.416-1.104-.624-1.824-.624-.704 0-1.352.216-1.944.648a2.478 2.478 0 0 0-1.032 1.752h5.664Zm11.504 7.944c-1.52 0-2.88-.648-4.08-1.944-1.2-1.296-1.8-2.904-1.8-4.824s.584-3.488 1.752-4.704c1.168-1.232 2.536-1.848 4.104-1.848s2.848.552 3.84 1.656V1.192h3.6V19h-3.6v-1.704c-1.008 1.264-2.28 1.896-3.816 1.896Zm-2.256-6.624c0 1.04.312 1.896.936 2.568.624.656 1.352.984 2.184.984.832 0 1.536-.328 2.112-.984.592-.672.888-1.528.888-2.568 0-1.056-.296-1.928-.888-2.616-.576-.704-1.288-1.056-2.136-1.056-.848 0-1.576.352-2.184 1.056-.608.704-.912 1.576-.912 2.616ZM57.322 19h-3.6V6.088h3.6V19ZM54.012 4.456c-.4-.416-.6-.92-.6-1.512s.2-1.088.6-1.488a2.06 2.06 0 0 1 1.512-.624c.592 0 1.088.208 1.488.624.416.4.624.896.624 1.488a2.06 2.06 0 0 1-.624 1.512c-.4.4-.896.6-1.488.6s-1.096-.2-1.512-.6ZM67.023 16c1.2 0 2.28-.6 3.24-1.8l2.136 2.4c-1.664 1.728-3.464 2.592-5.4 2.592-1.936 0-3.576-.608-4.92-1.824-1.328-1.232-1.992-2.832-1.992-4.8 0-1.984.672-3.592 2.016-4.824 1.36-1.248 2.968-1.872 4.824-1.872.928 0 1.864.192 2.808.576.96.384 1.8.952 2.52 1.704L70.383 10.6a4.229 4.229 0 0 0-1.536-1.152 4.223 4.223 0 0 0-1.776-.408c-.944 0-1.76.312-2.448.936-.672.608-1.008 1.464-1.008 2.568 0 1.088.336 1.936 1.008 2.544a3.513 3.513 0 0 0 2.4.912Zm18.844 3h-3.384v-1.56c-.928 1.168-2.08 1.752-3.456 1.752-1.36 0-2.504-.392-3.432-1.176-.928-.8-1.392-1.856-1.392-3.168 0-1.328.48-2.32 1.44-2.976.96-.656 2.272-.984 3.936-.984h2.688v-.072c0-1.376-.728-2.064-2.184-2.064-.624 0-1.288.128-1.992.384-.688.24-1.272.544-1.752.912L74.731 7.72c1.696-1.232 3.632-1.848 5.808-1.848 1.568 0 2.848.392 3.84 1.176.992.784 1.488 2.024 1.488 3.72V19Zm-3.624-4.92v-.624h-2.256c-1.44 0-2.16.448-2.16 1.344 0 .464.168.824.504 1.08.352.24.848.36 1.488.36s1.2-.192 1.68-.576c.496-.4.744-.928.744-1.584ZM92.85 19h-3.6V1.192h3.6V19Zm18-3.312c1.84 0 3.344-.728 4.512-2.184l2.4 2.472c-1.904 2.144-4.152 3.216-6.744 3.216-2.576 0-4.704-.816-6.384-2.448-1.664-1.632-2.496-3.688-2.496-6.168 0-2.496.848-4.576 2.544-6.24 1.712-1.664 3.8-2.496 6.264-2.496 2.752 0 5.056 1.048 6.912 3.144l-2.328 2.64c-1.184-1.472-2.656-2.208-4.416-2.208-1.408 0-2.616.464-3.624 1.392-.992.912-1.488 2.152-1.488 3.72 0 1.552.472 2.8 1.416 3.744.944.944 2.088 1.416 3.432 1.416Zm11.979-3.144c0 1.056.296 1.92.888 2.592.608.656 1.376.984 2.304.984.944 0 1.712-.328 2.304-.984.608-.672.912-1.536.912-2.592s-.304-1.92-.912-2.592c-.592-.672-1.36-1.008-2.304-1.008-.928 0-1.696.336-2.304 1.008-.592.672-.888 1.536-.888 2.592Zm10.032 0c0 1.872-.648 3.448-1.944 4.728-1.296 1.28-2.928 1.92-4.896 1.92-1.952 0-3.576-.64-4.872-1.92-1.296-1.28-1.944-2.856-1.944-4.728 0-1.872.648-3.448 1.944-4.728 1.296-1.296 2.92-1.944 4.872-1.944 1.968 0 3.6.648 4.896 1.944 1.296 1.28 1.944 2.856 1.944 4.728Zm9.566-3.288c-1.072 0-1.872.384-2.4 1.152-.528.752-.792 1.752-.792 3V19h-3.6V6.088h3.6v1.704a6.1 6.1 0 0 1 1.728-1.344c.704-.368 1.416-.56 2.136-.576l.024 3.384h-.696Zm14.359 7.872c-1.456 1.376-3.168 2.064-5.136 2.064-1.952 0-3.568-.6-4.848-1.8-1.28-1.216-1.92-2.84-1.92-4.872s.648-3.648 1.944-4.848c1.312-1.2 2.856-1.8 4.632-1.8 1.776 0 3.28.536 4.512 1.608 1.248 1.072 1.872 2.544 1.872 4.416v1.92h-9.408c.112.704.48 1.28 1.104 1.728a3.533 3.533 0 0 0 2.112.672c1.264 0 2.304-.424 3.12-1.272l2.016 2.184Zm-2.592-5.88c-.08-.768-.368-1.36-.864-1.776-.496-.416-1.104-.624-1.824-.624-.704 0-1.352.216-1.944.648a2.478 2.478 0 0 0-1.032 1.752h5.664Z" fill="#252B42"/></svg>
